public/img/production/companies/MaxPA.svg

<svg width="80" height="28" viewBox="0 0 80 28" fill="none" xmlns="http://www.w3.org/2000/svg">
<g clip-path="url(#clip0_1156_39)">
<path d="M6.336 6.368C6.624 6.896 6.952 7.552 7.32 8.336C7.704 9.104 8.096 9.944 8.496 10.856C8.912 11.752 9.32 12.672 9.72 13.616C10.12 14.56 10.496 15.448 10.848 16.28C11.2 15.448 11.576 14.56 11.976 13.616C12.376 12.672 12.776 11.752 13.176 10.856C13.592 9.944 13.984 9.104 14.352 8.336C14.736 7.552 15.072 6.896 15.36 6.368H18.768C18.928 7.472 19.072 8.712 19.2 10.088C19.344 11.448 19.464 12.872 19.56 14.36C19.672 15.832 19.768 17.312 19.848 18.8C19.944 20.288 20.024 21.688 20.088 23H16.44C16.392 21.384 16.328 19.624 16.248 17.72C16.168 15.816 16.048 13.896 15.888 11.96C15.6 12.632 15.28 13.376 14.928 14.192C14.576 15.008 14.224 15.824 13.872 16.64C13.536 17.456 13.208 18.24 12.888 18.992C12.568 19.728 12.296 20.36 12.072 20.888H9.456C9.232 20.36 8.96 19.728 8.64 18.992C8.32 18.24 7.984 17.456 7.632 16.64C7.296 15.824 6.952 15.008 6.6 14.192C6.248 13.376 5.928 12.632 5.64 11.96C5.48 13.896 5.36 15.816 5.28 17.72C5.2 19.624 5.136 21.384 5.088 23H1.44C1.504 21.688 1.576 20.288 1.656 18.8C1.752 17.312 1.848 15.832 1.944 14.36C2.056 12.872 2.176 11.448 2.304 10.088C2.448 8.712 2.6 7.472 2.76 6.368H6.336ZM28.0431 20.504C28.3951 20.504 28.7311 20.496 29.0511 20.48C29.3711 20.464 29.6271 20.44 29.8191 20.408V17.696C29.6751 17.664 29.4591 17.632 29.1711 17.6C28.8831 17.568 28.6191 17.552 28.3791 17.552C28.0431 17.552 27.7231 17.576 27.4191 17.624C27.1311 17.656 26.8751 17.728 26.6511 17.84C26.4271 17.952 26.2511 18.104 26.1231 18.296C25.9951 18.488 25.9311 18.728 25.9311 19.016C25.9311 19.576 26.1151 19.968 26.4831 20.192C26.8671 20.4 27.3871 20.504 28.0431 20.504ZM27.7551 10.04C28.8111 10.04 29.6911 10.16 30.3951 10.4C31.0991 10.64 31.6591 10.984 32.0751 11.432C32.5071 11.88 32.8111 12.424 32.9871 13.064C33.1631 13.704 33.2511 14.416 33.2511 15.2V22.64C32.7391 22.752 32.0271 22.88 31.1151 23.024C30.2031 23.184 29.0991 23.264 27.8031 23.264C26.9871 23.264 26.2431 23.192 25.5711 23.048C24.9151 22.904 24.3471 22.672 23.8671 22.352C23.3871 22.016 23.0191 21.584 22.7631 21.056C22.5071 20.528 22.3791 19.88 22.3791 19.112C22.3791 18.376 22.5231 17.752 22.8111 17.24C23.1151 16.728 23.5151 16.32 24.0111 16.016C24.5071 15.712 25.0751 15.496 25.7151 15.368C26.3551 15.224 27.0191 15.152 27.7071 15.152C28.1711 15.152 28.5791 15.176 28.9311 15.224C29.2991 15.256 29.5951 15.304 29.8191 15.368V15.032C29.8191 14.424 29.6351 13.936 29.2671 13.568C28.8991 13.2 28.2591 13.016 27.3471 13.016C26.7391 13.016 26.1391 13.064 25.5471 13.16C24.9551 13.24 24.4431 13.36 24.0111 13.52L23.5551 10.64C23.7631 10.576 24.0191 10.512 24.3231 10.448C24.6431 10.368 24.9871 10.304 25.3551 10.256C25.7231 10.192 26.1071 10.144 26.5071 10.112C26.9231 10.064 27.3391 10.04 27.7551 10.04ZM41.5007 14.216L43.9967 10.376H47.6927L43.3727 16.448C44.3327 17.648 45.2047 18.816 45.9887 19.952C46.7727 21.088 47.3967 22.104 47.8607 23H44.0207C43.8927 22.76 43.7327 22.464 43.5407 22.112C43.3487 21.744 43.1327 21.368 42.8927 20.984C42.6527 20.584 42.3967 20.192 42.1247 19.808C41.8687 19.408 41.6127 19.048 41.3567 18.728C41.1167 19.032 40.8687 19.368 40.6127 19.736C40.3727 20.104 40.1407 20.48 39.9167 20.864C39.6927 21.232 39.4687 21.6 39.2447 21.968C39.0367 22.336 38.8527 22.68 38.6927 23H35.0447C35.2367 22.6 35.5007 22.128 35.8367 21.584C36.1727 21.04 36.5327 20.48 36.9167 19.904C37.3167 19.312 37.7327 18.728 38.1647 18.152C38.5967 17.56 39.0207 17.008 39.4367 16.496C38.7167 15.488 37.9967 14.472 37.2767 13.448C36.5567 12.408 35.8447 11.384 35.1407 10.376H39.0047L41.5007 14.216Z" fill="#BF6E26"/>
<path d="M55.0058 6.176C57.4858 6.176 59.3898 6.616 60.7178 7.496C62.0458 8.36 62.7098 9.784 62.7098 11.768C62.7098 13.768 62.0378 15.216 60.6938 16.112C59.3498 16.992 57.4298 17.432 54.9338 17.432H53.7578V23H50.0138V6.608C50.8298 6.448 51.6938 6.336 52.6058 6.272C53.5178 6.208 54.3178 6.176 55.0058 6.176ZM55.2458 9.368C54.9738 9.368 54.7018 9.376 54.4297 9.392C54.1738 9.408 53.9498 9.424 53.7578 9.44V14.24H54.9338C56.2298 14.24 57.2058 14.064 57.8618 13.712C58.5178 13.36 58.8458 12.704 58.8458 11.744C58.8458 11.28 58.7578 10.896 58.5818 10.592C58.4218 10.288 58.1818 10.048 57.8618 9.872C57.5578 9.68 57.1818 9.552 56.7338 9.488C56.2858 9.408 55.7898 9.368 55.2458 9.368ZM74.9544 23C74.7784 22.424 74.5784 21.832 74.3544 21.224C74.1464 20.616 73.9384 20.008 73.7304 19.4H67.2504C67.0424 20.008 66.8264 20.616 66.6024 21.224C66.3944 21.832 66.2024 22.424 66.0264 23H62.1384C62.7624 21.208 63.3544 19.552 63.9144 18.032C64.4744 16.512 65.0184 15.08 65.5464 13.736C66.0904 12.392 66.6184 11.12 67.1304 9.92C67.6584 8.704 68.2024 7.52 68.7624 6.368H72.3384C72.8824 7.52 73.4184 8.704 73.9464 9.92C74.4744 11.12 75.0024 12.392 75.5304 13.736C76.0744 15.08 76.6264 16.512 77.1864 18.032C77.7464 19.552 78.3384 21.208 78.9624 23H74.9544ZM70.4664 10.136C70.3864 10.376 70.2664 10.704 70.1064 11.12C69.9464 11.536 69.7624 12.016 69.5544 12.56C69.3464 13.104 69.1144 13.704 68.8584 14.36C68.6184 15.016 68.3704 15.704 68.1144 16.424H72.8424C72.5864 15.704 72.3384 15.016 72.0984 14.36C71.8584 13.704 71.6264 13.104 71.4024 12.56C71.1944 12.016 71.0104 11.536 70.8504 11.12C70.6904 10.704 70.5624 10.376 70.4664 10.136Z" fill="#5B5B5B"/>
</g>
<defs>
<clipPath id="clip0_1156_39">
<rect width="80" height="28" fill="white"/>
</clipPath>
</defs>
</svg>

<svg viewBox="0 0 80 28" fill="none" xmlns="http://www.w3.org/2000/svg"><g clip-path="url(#a)"><path d="M6.34 6.37c.28.53.61 1.18.98 1.97.38.76.78 1.6 1.18 2.52.41.9.82 1.81 1.22 2.76l1.13 2.66 1.13-2.66a157.74 157.74 0 0 1 2.37-5.28c.39-.79.72-1.44 1.01-1.97h3.4a104.55 104.55 0 0 1 .8 8c.11 1.46.2 2.94.29 4.43.1 1.49.17 2.89.24 4.2h-3.65a431.8 431.8 0 0 0-.2-5.28c-.07-1.9-.2-3.82-.35-5.76l-.96 2.23-1.06 2.45a217.89 217.89 0 0 1-1.8 4.25H9.46l-.82-1.9-1-2.35a159.57 159.57 0 0 0-2-4.68c-.16 1.94-.28 3.86-.36 5.76L5.08 23H1.45l.22-4.2.28-4.44.36-4.27c.15-1.38.3-2.62.46-3.72h3.58Zm21.7 14.13a20.21 20.21 0 0 0 1.78-.1v-2.7a6.6 6.6 0 0 0-1.44-.15c-.34 0-.66.03-.96.07-.29.04-.54.1-.77.22-.22.11-.4.26-.53.46-.12.19-.19.43-.19.72 0 .56.19.95.55 1.17.39.21.9.31 1.56.31Zm-.28-10.46c1.05 0 1.93.12 2.64.36a4 4 0 0 1 1.68 1.03c.43.45.73 1 .9 1.63.18.64.27 1.36.27 2.14v7.44c-.51.11-1.22.24-2.13.38-.92.16-2.02.24-3.32.24-.81 0-1.56-.07-2.23-.21a4.96 4.96 0 0 1-1.7-.7 3.33 3.33 0 0 1-1.1-1.3 4.43 4.43 0 0 1-.4-1.94c0-.73.15-1.36.44-1.87.3-.51.7-.92 1.2-1.22.5-.3 1.07-.52 1.7-.65a9.05 9.05 0 0 1 3.22-.15c.37.04.67.08.89.15v-.34c0-.6-.18-1.1-.55-1.46-.37-.37-1.01-.55-1.92-.55a11.23 11.23 0 0 0-3.34.5l-.45-2.88.76-.2c.32-.07.67-.14 1.04-.18.36-.07.75-.12 1.15-.15.41-.05.83-.07 1.25-.07Zm13.74 4.18 2.5-3.84h3.7l-4.33 6.07c.96 1.2 1.83 2.37 2.62 3.5.78 1.14 1.4 2.15 1.87 3.05h-3.84a110.58 110.58 0 0 0-1.13-2.02c-.24-.4-.5-.79-.77-1.17-.25-.4-.5-.76-.76-1.08-.24.3-.5.64-.75 1l-.7 1.13-.67 1.1L38.7 23h-3.65c.2-.4.46-.87.8-1.42a57.6 57.6 0 0 1 2.32-3.43c.44-.59.86-1.14 1.28-1.65a502.85 502.85 0 0 1-4.3-6.12H39l2.5 3.84Z" fill="#BF6E26"/><path d="M55 6.18c2.49 0 4.39.44 5.72 1.32 1.33.86 1.99 2.28 1.99 4.27 0 2-.67 3.45-2.02 4.34-1.34.88-3.26 1.32-5.76 1.32h-1.17V23H50V6.6c.82-.15 1.68-.26 2.6-.33.9-.06 1.7-.1 2.4-.1Zm.25 3.19a13.9 13.9 0 0 0-1.5.07v4.8h1.18c1.3 0 2.28-.18 2.93-.53.66-.35.99-1 .99-1.97 0-.46-.1-.84-.27-1.15-.16-.3-.4-.54-.72-.72-.3-.19-.68-.32-1.13-.38a8.5 8.5 0 0 0-1.48-.12ZM74.95 23c-.17-.58-.37-1.17-.6-1.78l-.62-1.82h-6.48a56.49 56.49 0 0 0-1.22 3.6h-3.9a296 296 0 0 1 3.42-9.26 91.29 91.29 0 0 1 3.22-7.37h3.57a123.68 123.68 0 0 1 3.19 7.37c.54 1.34 1.1 2.77 1.66 4.3A296 296 0 0 1 78.96 23h-4Zm-4.48-12.86-.36.98a792.44 792.44 0 0 0-2 5.3h4.73l-.74-2.06a792.44 792.44 0 0 0-1.63-4.22Z" fill="#5B5B5B"/></g><defs><clipPath id="a"><path fill="#fff" d="M0 0h80v28H0z"/></clipPath></defs></svg>
